Newaita-dark/.DP/16/simplescreenrecorder-recording.svg

<svg xmlns="http://www.w3.org/2000/svg" xmlns:xlink="http://www.w3.org/1999/xlink" width="16px" height="16px" viewBox="0 0 16 16" version="1.1">
<g id="surface1">
<path style=" stroke:none;fill-rule:nonzero;fill:rgb(93.333334%,93.333334%,93.333334%);fill-opacity:1;" d="M 2.644531 2.769531 C 1.914062 2.769531 1.324219 3.359375 1.324219 4.09375 L 1.324219 5.457031 C 1.324219 5.800781 1.617188 6.078125 1.984375 6.078125 C 2.351562 6.078125 2.644531 5.800781 2.644531 5.457031 L 2.644531 4.753906 C 2.644531 4.390625 2.941406 4.09375 3.308594 4.09375 L 3.96875 4.09375 C 4.335938 4.09375 4.628906 3.816406 4.628906 3.472656 L 4.628906 3.394531 C 4.628906 3.050781 4.335938 2.769531 3.96875 2.769531 Z M 11.90625 2.769531 C 11.539062 2.769531 11.246094 3.050781 11.246094 3.394531 L 11.246094 3.472656 C 11.246094 3.816406 11.539062 4.09375 11.90625 4.09375 L 12.570312 4.09375 C 12.933594 4.09375 13.230469 4.390625 13.230469 4.753906 L 13.230469 5.457031 C 13.230469 5.800781 13.527344 6.078125 13.890625 6.078125 C 14.257812 6.078125 14.554688 5.800781 14.554688 5.457031 L 14.554688 4.09375 C 14.554688 3.359375 13.964844 2.769531 13.230469 2.769531 Z M 1.984375 9.886719 C 1.617188 9.886719 1.324219 10.164062 1.324219 10.511719 L 1.324219 11.871094 C 1.324219 12.605469 1.914062 13.195312 2.644531 13.195312 L 3.96875 13.195312 C 4.335938 13.195312 4.628906 12.917969 4.628906 12.570312 L 4.628906 12.496094 C 4.628906 12.148438 4.335938 11.871094 3.96875 11.871094 L 3.308594 11.871094 C 2.941406 11.871094 2.644531 11.578125 2.644531 11.210938 L 2.644531 10.511719 C 2.644531 10.164062 2.351562 9.886719 1.984375 9.886719 Z M 13.890625 9.886719 C 13.527344 9.886719 13.230469 10.164062 13.230469 10.511719 L 13.230469 11.210938 C 13.230469 11.578125 12.933594 11.871094 12.570312 11.871094 L 11.90625 11.871094 C 11.539062 11.871094 11.246094 12.148438 11.246094 12.496094 L 11.246094 12.570312 C 11.246094 12.917969 11.539062 13.195312 11.90625 13.195312 L 13.230469 13.195312 C 13.964844 13.195312 14.554688 12.605469 14.554688 11.871094 L 14.554688 10.511719 C 14.554688 10.164062 14.257812 9.886719 13.890625 9.886719 Z M 13.890625 9.886719 "/>
<path style=" stroke:none;fill-rule:nonzero;fill:rgb(95.294118%,25.882354%,20.784314%);fill-opacity:1;" d="M 7.9375 5.417969 C 9.398438 5.417969 10.585938 6.601562 10.585938 8.0625 C 10.585938 9.523438 9.398438 10.710938 7.9375 10.710938 C 6.476562 10.710938 5.292969 9.523438 5.292969 8.0625 C 5.292969 6.601562 6.476562 5.417969 7.9375 5.417969 Z M 7.9375 5.417969 "/>
</g>
</svg>

<svg xmlns="http://www.w3.org/2000/svg" width="16" height="16"><path d="M2.645 2.77c-.73 0-1.32.59-1.32 1.324v1.363c0 .344.292.621.66.621.367 0 .66-.277.66-.621v-.703c0-.363.296-.66.664-.66h.66c.367 0 .66-.278.66-.621v-.078c0-.344-.293-.625-.66-.625zm9.261 0c-.367 0-.66.28-.66.625v.078c0 .343.293.62.66.62h.664c.364 0 .66.298.66.66v.704c0 .344.297.621.66.621.368 0 .665-.277.665-.621V4.094A1.32 1.32 0 0 0 13.23 2.77zM1.984 9.887c-.367 0-.66.277-.66.625v1.36c0 .733.59 1.323 1.32 1.323H3.97c.367 0 .66-.277.66-.625v-.074c0-.348-.293-.625-.66-.625h-.66a.66.66 0 0 1-.664-.66v-.7c0-.347-.293-.624-.66-.624zm11.907 0c-.364 0-.66.277-.66.625v.699a.66.66 0 0 1-.66.66h-.665c-.367 0-.66.277-.66.625v.074c0 .348.293.625.66.625h1.324a1.32 1.32 0 0 0 1.325-1.324v-1.36c0-.347-.297-.624-.664-.624zm0 0" fill="#bdbdbd"/><path d="M7.938 5.418a2.647 2.647 0 0 1 2.648 2.644 2.65 2.65 0 0 1-2.649 2.649 2.647 2.647 0 0 1 0-5.293zm0 0" fill="#f44336"/></svg>
